icons/svgs/compass-outline.svg

<svg width="24" height="24" viewBox="0 0 24 24" fill="none" xmlns="http://www.w3.org/2000/svg">
<path d="M20.125 12C20.125 9.10938 18.5625 6.45312 16.0625 4.96875C13.5234 3.52344 10.4375 3.52344 7.9375 4.96875C5.39844 6.45312 3.875 9.10938 3.875 12C3.875 14.9297 5.39844 17.5859 7.9375 19.0703C10.4375 20.5156 13.5234 20.5156 16.0625 19.0703C18.5625 17.5859 20.125 14.9297 20.125 12ZM2 12C2 8.44531 3.875 5.16406 7 3.36719C10.0859 1.57031 13.875 1.57031 17 3.36719C20.0859 5.16406 22 8.44531 22 12C22 15.5938 20.0859 18.875 17 20.6719C13.875 22.4688 10.0859 22.4688 7 20.6719C3.875 18.875 2 15.5938 2 12ZM13.9531 14.7344L8.32812 16.8828C7.58594 17.1953 6.80469 16.4141 7.11719 15.6719L9.26562 10.0469C9.42188 9.69531 9.65625 9.46094 10.0078 9.30469L15.6328 7.15625C16.4141 6.84375 17.1562 7.58594 16.8438 8.36719L14.6953 13.9922C14.5391 14.3438 14.3047 14.5781 13.9531 14.7344ZM13.25 12C13.25 11.3359 12.6641 10.75 12 10.75C11.2969 10.75 10.75 11.3359 10.75 12C10.75 12.7031 11.2969 13.25 12 13.25C12.6641 13.25 13.25 12.7031 13.25 12Z" fill="black"/>
</svg>

<svg xmlns="http://www.w3.org/2000/svg" width="24" height="24" fill="currentColor" class="icon-compass-outline" viewBox="0 0 24 24">
  <mask id="a" width="20" height="21" x="2" y="2" maskUnits="userSpaceOnUse" style="mask-type:alpha">
    <path d="M20.125 12c0-2.89-1.562-5.547-4.062-7.031-2.54-1.446-5.625-1.446-8.125 0C5.398 6.453 3.875 9.109 3.875 12a8.13 8.13 0 0 0 4.063 7.07c2.5 1.446 5.585 1.446 8.125 0 2.5-1.484 4.062-4.14 4.062-7.07M2 12a9.93 9.93 0 0 1 5-8.633c3.086-1.797 6.875-1.797 10 0 3.086 1.797 5 5.078 5 8.633 0 3.594-1.914 6.875-5 8.672-3.125 1.797-6.914 1.797-10 0C3.875 18.875 2 15.594 2 12m11.953 2.734-5.625 2.149c-.742.312-1.523-.469-1.21-1.211l2.148-5.625c.156-.352.39-.586.742-.742l5.625-2.149a.922.922 0 0 1 1.21 1.211l-2.148 5.625c-.156.352-.39.586-.742.742M13.25 12c0-.664-.586-1.25-1.25-1.25-.703 0-1.25.586-1.25 1.25 0 .703.547 1.25 1.25 1.25.664 0 1.25-.547 1.25-1.25"/>
  </mask>
  <g mask="url(#a)">
    <path d="M0 0h24v24H0z"/>
  </g>
</svg>
